src/lib/packages/icons/src/assets/line/stethoscope.svg

<svg xmlns="http://www.w3.org/2000/svg" width="24" height="24" fill="none"><path fill="currentColor" d="M21.75 10A2.752 2.752 0 0 0 19 7.25 2.752 2.752 0 0 0 16.25 10c0 1.255.849 2.304 2 2.633V15.5a4.756 4.756 0 0 1-4.75 4.75 4.756 4.756 0 0 1-4.75-4.75v-.814c3.014-.318 5-2.507 5-5.686V4.5c0-1.409-.841-2.25-2.25-2.25H11a.75.75 0 0 0 0 1.5h.5c.589 0 .75.161.75.75V9c0 2.582-1.668 4.25-4.25 4.25S3.75 11.582 3.75 9V4.5c0-.589.161-.75.75-.75H5a.75.75 0 0 0 0-1.5h-.5c-1.409 0-2.25.841-2.25 2.25V9c0 3.178 1.986 5.368 5 5.686v.814a6.257 6.257 0 0 0 6.25 6.25 6.257 6.257 0 0 0 6.25-6.25v-2.867a2.745 2.745 0 0 0 2-2.633ZM19 11.25c-.689 0-1.25-.561-1.25-1.25s.561-1.25 1.25-1.25 1.25.561 1.25 1.25-.561 1.25-1.25 1.25Z"/></svg>

<svg width="24" height="24" viewBox="0 0 24 24" fill="none" xmlns="http://www.w3.org/2000/svg">
<path d="M21.75 10C21.75 8.483 20.517 7.25 19 7.25C17.483 7.25 16.25 8.483 16.25 10C16.25 11.255 17.099 12.3041 18.25 12.6331V15.5C18.25 18.119 16.119 20.25 13.5 20.25C10.881 20.25 8.75 18.119 8.75 15.5V14.686C11.764 14.368 13.75 12.179 13.75 9V4.5C13.75 3.091 12.909 2.25 11.5 2.25H11C10.586 2.25 10.25 2.586 10.25 3C10.25 3.414 10.586 3.75 11 3.75H11.5C12.089 3.75 12.25 3.911 12.25 4.5V9C12.25 11.582 10.582 13.25 8 13.25C5.418 13.25 3.75 11.582 3.75 9V4.5C3.75 3.911 3.911 3.75 4.5 3.75H5C5.414 3.75 5.75 3.414 5.75 3C5.75 2.586 5.414 2.25 5 2.25H4.5C3.091 2.25 2.25 3.091 2.25 4.5V9C2.25 12.178 4.236 14.368 7.25 14.686V15.5C7.25 18.946 10.054 21.75 13.5 21.75C16.946 21.75 19.75 18.946 19.75 15.5V12.6331C20.901 12.3041 21.75 11.255 21.75 10ZM19 11.25C18.311 11.25 17.75 10.689 17.75 10C17.75 9.311 18.311 8.75 19 8.75C19.689 8.75 20.25 9.311 20.25 10C20.25 10.689 19.689 11.25 19 11.25Z" fill="currentColor"/>
</svg>
